X:1
T: Genetially Modified Roast Beef
C:Bruce Shawyer
R:Strathspey
Q:128
K:D
M:4/4
L:1/16
D2|D6F2 A6B2|A2F2 E3D D4 d3A|B4 d3e f4 e3d|B12d4|A3B d3e f4 e3d|d4 D3E F4 E2D2|G6A2 B3c d2F2|E12D4|
D6F2 A6B2|A2F2 E3D D4 d3A|B4 d3e f4 e3d|B12d4|A3B d3e f4 e3d|d2c2 B2A2 F4 E3D|G6B2 A4F4|D12A4|
f6e2 g3f e2d2|B4d4 A6F2|G3A B2c2 d6A2|BA3 d2F2 E6A2|f6e2 g3f e2d2|B4d4A6F2|G3A B2c2 d2e2 f2g2|f4e4d8|
f6e2 g3f e2d2|B4d4 A6F2|G3A B2c2 d6A2|BA3 d2F2 E6A2|A3B d3e f4 e3d|d2c2 B2A2 F4 E3D|G6B2 A4F4|D12||
